flaticon/essential/division.svg

<svg xmlns="http://www.w3.org/2000/svg" width="32" height="32" viewBox="0 0 24 24">
    <path d="M20.757812 8.726562L3.242188 8.726562C1.453125 8.726562 0 10.195312 0 12 0 13.804688 1.453125 15.273438 3.242188 15.273438L20.757812 15.273438C22.546875 15.273438 24 13.804688 24 12 24 10.195312 22.546875 8.726562 20.757812 8.726562zM20.757812 14.183594L3.242188 14.183594C2.074219 14.183594 1.089844 13.183594 1.089844 12 1.089844 10.816406 2.074219 9.816406 3.242188 9.816406L20.757812 9.816406C21.925781 9.816406 22.910156 10.816406 22.910156 12 22.910156 13.183594 21.925781 14.183594 20.757812 14.183594zM12 7.089844C13.804688 7.089844 15.273438 5.625 15.273438 3.816406 15.273438 2.011719 13.804688.546875 12 .546875 10.195312.546875 8.726562 2.011719 8.726562 3.816406 8.726562 5.625 10.195312 7.089844 12 7.089844zM12 1.636719C13.203125 1.636719 14.183594 2.613281 14.183594 3.816406 14.183594 5.019531 13.203125 6 12 6 10.796875 6 9.816406 5.019531 9.816406 3.816406 9.816406 2.613281 10.796875 1.636719 12 1.636719zM12 16.910156C10.195312 16.910156 8.726562 18.375 8.726562 20.183594 8.726562 21.988281 10.195312 23.453125 12 23.453125 13.804688 23.453125 15.273438 21.988281 15.273438 20.183594 15.273438 18.375 13.804688 16.910156 12 16.910156zM12 22.363281C10.796875 22.363281 9.816406 21.386719 9.816406 20.183594 9.816406 18.980469 10.796875 18 12 18 13.203125 18 14.183594 18.980469 14.183594 20.183594 14.183594 21.386719 13.203125 22.363281 12 22.363281zM12 22.363281"/>
</svg>

<svg xmlns="http://www.w3.org/2000/svg" width="32" height="32" viewBox="0 0 24 24">
    <path d="M20.758 8.727H3.242C1.453 8.727 0 10.195 0 12c0 1.805 1.453 3.273 3.242 3.273h17.516C22.547 15.273 24 13.805 24 12c0-1.805-1.453-3.273-3.242-3.273zm0 5.457H3.242c-1.168 0-2.152-1-2.152-2.184 0-1.184.984-2.184 2.152-2.184h17.516c1.168 0 2.152 1 2.152 2.184 0 1.184-.984 2.184-2.152 2.184zm0 0M12 7.09a3.275 3.275 0 0 0 3.273-3.274 3.274 3.274 0 0 0-6.546 0A3.275 3.275 0 0 0 12 7.09zm0-5.453c1.203 0 2.184.976 2.184 2.18C14.184 5.02 13.204 6 12 6a2.187 2.187 0 0 1-2.184-2.184c0-1.203.98-2.18 2.184-2.18zm0 0M12 16.91a3.275 3.275 0 0 0-3.273 3.274 3.274 3.274 0 0 0 6.546 0A3.275 3.275 0 0 0 12 16.91zm0 5.453a2.184 2.184 0 0 1-2.184-2.18C9.816 18.98 10.796 18 12 18c1.203 0 2.184.98 2.184 2.184 0 1.203-.98 2.18-2.184 2.18zm0 0"/>
</svg>
